icons/shield-cross-line.svg

<svg viewBox="0 0 24 24" fill="currentColor" xmlns="http://www.w3.org/2000/svg">
    <path d="M3.78307 2.82598L12 1L20.2169 2.82598C20.6745 2.92766 21 3.33347 21 3.80217V13.7889C21 15.795 19.9974 17.6684 18.3282 18.7812L12 23L5.6718 18.7812C4.00261 17.6684 3 15.795 3 13.7889V3.80217C3 3.33347 3.32553 2.92766 3.78307 2.82598ZM5 4.60434V13.7889C5 15.1263 5.6684 16.3752 6.7812 17.1171L12 20.5963L17.2188 17.1171C18.3316 16.3752 19 15.1263 19 13.7889V4.60434L12 3.04879L5 4.60434ZM11 10V7H13V10H16V12H13V15H11V12H8V10H11Z"/>
</svg>

<svg xmlns="http://www.w3.org/2000/svg" viewBox="0 0 24 24">
    <g>
        <path fill="none" d="M0 0h24v24H0z"/>
        <path d="M3.783 2.826L12 1l8.217 1.826a1 1 0 0 1 .783.976v9.987a6 6 0 0 1-2.672 4.992L12 23l-6.328-4.219A6 6 0 0 1 3 13.79V3.802a1 1 0 0 1 .783-.976zM5 4.604v9.185a4 4 0 0 0 1.781 3.328L12 20.597l5.219-3.48A4 4 0 0 0 19 13.79V4.604L12 3.05 5 4.604zM11 10V7h2v3h3v2h-3v3h-2v-3H8v-2h3z"/>
    </g>
</svg>
